X: 2
T: Swinging On The Gate
R: reel
M: 4/4
L: 1/8
K: Dmaj
d2 AF D2 EF | G2 FG FDB,D | A,DFA d2 cA | (3Bcd ed cABc |dBAF D2 EF | GEFD EDB,D | GE (3FED EDB,G, | A,B,DE D2 :|d2 de faef | dcBA F2 ED | B,E E2 GFED | B,DEF GABc |dcde (3fga ef | dcBA F2 EF | (3GFE FD EDB,G, | A,B,DE D2 :|


Tune 236	Setting 12937

